X: 305630
T: COTILLION No. 2. BALTIMORE SETT tune 1
%R: reel
B: Elias Howe "The Musician's Companion" Part 3 1844 p.80 #1
S: http://imslp.org/wiki/The_Musician's_Companion_(Howe,_Elias)
Z: 2015 John Chambers <jc:trillian.mit.edu>
M: 2/4
L: 1/16
K: Bb
% - - - - - - - - - - - - - - - - - - - - - - - - - - - - -
F2 |\
B2FB GBFB | EBDB | Cccd |\
B2FB Ggfe | dfcf dBB2 H:|\
g2 |\
bgdg egce | dfBd cAFf |\
bfdf egce | dfcf dB"^D.C."B2 :|
% - - - - - - - - - - Dance description - - - - - - - - - -
%%begintext align
%% All balance to corners,
%% all promenade,
%% first 2 forward and back,
%% balance,
%% grand right and left,
%% balance 4,
%% turn partners.
%% Next 2, &c.
%%endtext
% - - - - - - - - - - - - - - - - - - - - - - - - - - - - -
%%sep 1 1 300


